X:1
T:Doon the Moor
M:5/4
L:1/8
K:C
 GC C| G3 ED D C3 E| GA c2- cc BG A G-| GG AB cG| AB cG| AB c/2 E3/2 DD E/2 D3/2 C3/2 C/2|\
 C4- C2 z2 E3/2 F/2| GC EG E2 D2| Cc| B3 GA BA G3-| GG AB cG AB cG|\
 AB c/2 E3/2 DD E/2 D3/2 C3/2 C/2| C4- C3||

